images/robot.svg

<?xml version="1.0" encoding="UTF-8" standalone="no"?>
<svg width="250px" height="210px" viewBox="0 0 250 210" version="1.1" xmlns="http://www.w3.org/2000/svg" xmlns:xlink="http://www.w3.org/1999/xlink">
    <!-- Generator: Sketch 3.6.1 (26313) - http://www.bohemiancoding.com/sketch -->
    <title>Page 1</title>
    <desc>Created with Sketch.</desc>
    <defs></defs>
    <g id="Desktop-design" stroke="none" stroke-width="1" fill="none" fill-rule="evenodd">
        <g id="Pricing-page" transform="translate(-645.000000, -4011.000000)">
            <g id="Group-3" transform="translate(100.000000, 30.000000)">
                <g id="Group-17" transform="translate(1.000000, 3558.000000)">
                    <g id="Page-1" transform="translate(544.000000, 422.000000)">
                        <path d="M4,111 L4,127.452 L4.97,133.776 L7.302,137.304 L12.419,141.066 L24.39,141.066 L30.805,139.181 L34.933,134.78 L36.39,129.066 L36.39,115.498 L4,111 Z" id="Fill-1" fill="#49B9E8"></path>
                        <path d="M36.391,115.776 L4,111.986 L4.233,110 L36.623,113.79 L36.391,115.776 Z" id="Fill-2" fill="#373D44"></path>
                        <g id="Group-40" transform="translate(0.000000, 0.969000)">
                            <path d="M81,161.851 L91.971,161.851 L100.821,158.234 L109.222,150.531 L114.219,139.846 L114.959,130.399 L113.396,123 L92.687,133.599 L81,161.851 L81,161.851 Z" id="Fill-3" fill="#AFBAC4"></path>
                            <path d="M234.071,162 L217,194.191 L236.618,229.039 L247.924,197.171 L240.757,173.91 L234.071,162 Z" id="Fill-5" fill="#AFBAC4"></path>
                            <path d="M136.4905,116.002713 L101.3825,130.544713 C97.7285,132.058713 94.8835,134.902713 93.3705,138.555713 L72.1365,189.817713 C70.6245,193.470713 70.6245,197.493713 72.1365,201.146713 L93.3705,252.408713 C94.8835,256.061713 97.7275,258.905713 101.3825,260.419713 L152.6435,281.652713 C156.2965,283.165713 160.3195,283.165713 163.9715,281.652713 L215.2345,260.419713 C218.8875,258.905713 221.7325,256.060713 223.2455,252.408713 L244.4785,201.146713 C245.9915,197.493713 245.9915,193.470713 244.4785,189.817713 L223.2455,138.555713 C221.7325,134.902713 218.8875,132.058713 215.2345,130.544713 L180.1865,116.027713 L164.3965,116.955713 L163.9715,116.779713 C159.2935,114.841713 155.5895,114.493713 152.6435,115.712713 L152.2845,115.861713 L136.4905,116.002713 Z M158.3075,286.789713 C155.8705,286.789713 153.4325,286.309713 151.1125,285.348713 L99.8505,264.114713 C95.2105,262.192713 91.5955,258.578713 89.6755,253.939713 L68.4415,202.676713 C66.5195,198.037713 66.5195,192.926713 68.4415,188.287713 L89.6755,137.024713 C91.5965,132.384713 95.2105,128.771713 99.8505,126.849713 L135.6785,112.009713 L151.4885,111.868713 C155.2825,110.433713 159.7345,110.773713 165.0725,112.909713 L180.8685,111.980713 L216.7655,126.849713 C221.4055,128.771713 225.0185,132.385713 226.9405,137.024713 L248.1745,188.287713 C250.0955,192.926713 250.0955,198.037713 248.1745,202.676713 L226.9405,253.939713 C225.0195,258.578713 221.4055,262.191713 216.7655,264.114713 L165.5035,285.348713 C163.1825,286.309713 160.7455,286.789713 158.3075,286.789713 L158.3075,286.789713 Z" id="Fill-9" fill="#373D44"></path>
                            <path d="M198.886,162.01 L143,150.962 L143.388,149 L199.274,160.048 L198.886,162.01 Z" id="Fill-13" fill="#373D44"></path>
                            <path d="M123.814,224.475 L108,188.81 L109.828,188 L125.642,223.664 L123.814,224.475 Z" id="Fill-15" fill="#373D44"></path>
                            <path d="M26,179 L75.355,179 L75.355,175 L26,175 L26,179 Z" id="Fill-17" fill="#373D44"></path>
                            <path d="M3.0405,176.128 L37.0405,176.128 L37.0405,168 L3.0405,168 L3.0405,176.128 Z" id="Fill-19" fill="#AFBAC4"></path>
                            <path d="M6.1347341,175.073216 L33.8652659,175.073216 L33.8652659,170.988784 L6.1347341,170.988784 L6.1347341,175.073216 Z M-8.45545856e-13,179.031 L40,179.031 L40,167.031 L-8.45545856e-13,167.031 L-8.45545856e-13,179.031 Z" id="Fill-20" fill="#373D44"></path>
                            <path d="M241.46,213.16 C232.05,208.152 225.642,198.25 225.642,186.847 C225.642,177.702 229.146,170.067 235.632,164.602 L236.301,164.177 C236.301,164.177 228.472,145.211 226.613,140.789 C224.754,136.366 223.371,134 223.371,134 L222.01,134.923 C203.761,145.821 193,164.048 193,186.847 C193,211.854 207.708,233.417 228.941,243.384 L241.46,213.16 Z" id="Fill-21" fill="#49B9E8"></path>
                            <path d="M222.632,137.538 C204.808,148.357 195,166.082 195,187.502 C195,210.126 207.85,231.017 227.908,241.305 L238.938,214.68 C229.457,208.924 223.641,198.672 223.641,187.502 C223.641,178.075 227.169,170.015 233.854,164.148 C231.987,159.629 226.304,145.87 224.769,142.219 C223.926,140.214 223.183,138.641 222.632,137.538 L222.632,137.538 Z M228.091,245.85 C205.559,235.273 191,212.37 191,187.502 C191,164.477 201.63,145.44 220.935,133.891 L222.247,133 L225.097,133.645 C225.156,133.747 226.569,136.177 228.456,140.669 C230.297,145.046 238.07,163.879 238.149,164.069 L237.373,166.52 L236.82,166.872 C230.815,171.981 227.641,179.112 227.641,187.502 C227.641,197.799 233.296,207.205 242.4,212.049 L243.308,214.58 L230.788,244.804 L228.091,245.85 Z" id="Fill-22" fill="#373D44"></path>
                            <path d="M115.392,132.32 C115.392,148.774 102.054,162.112 85.6,162.112 C84.084,162.112 82.595,161.997 81.14,161.779 C81.14,161.779 73.318,180.986 71.424,185.234 C69.53,189.483 69,192.567 69,192.567 L69.701,192.689 C75.145,194.239 79.658,194.754 85.6,194.754 C120.081,194.754 148.033,166.801 148.033,132.32 C148.033,124.453 146.564,116.933 143.908,110 L113.728,122.501 C114.801,125.577 115.392,128.878 115.392,132.32" id="Fill-25" fill="#49B9E8"></path>
                            <path d="M71.4143182,191.084675 C75.9563182,192.279675 80.0473182,192.752675 85.6003182,192.752675 C118.923318,192.752675 146.033318,165.642675 146.033318,132.319675 C146.033318,125.588675 144.928318,118.980675 142.743318,112.646675 L116.186318,123.646675 C116.986318,126.466675 117.392318,129.376675 117.392318,132.319675 C117.392318,149.849675 103.130318,164.111675 85.6003182,164.111675 C84.5413182,164.111675 83.4753182,164.058675 82.4133182,163.952675 C80.5573182,168.502675 74.8553182,182.447675 73.2513182,186.048675 C72.3393182,188.092675 71.7613182,189.857675 71.4143182,191.084675 M85.6003182,196.752675 C79.2143182,196.752675 74.6203182,196.160675 69.2543182,194.640675 L68.6553182,194.536675 C67.5693182,194.345675 66.8423182,193.313675 67.0293182,192.227675 C67.0533182,192.090675 67.6243182,188.845675 69.5973182,184.419675 C71.4563182,180.249675 79.2093182,161.215675 79.2873182,161.023675 C79.6363182,160.169675 80.5243182,159.666675 81.4363182,159.800675 C82.8133182,160.006675 84.2153182,160.111675 85.6003182,160.111675 C100.924318,160.111675 113.392318,147.644675 113.392318,132.319675 C113.392318,129.193675 112.869318,126.111675 111.839318,123.159675 C111.490318,122.158675 111.982318,121.058675 112.962318,120.652675 L143.143318,108.151675 C143.643318,107.945675 144.204318,107.949675 144.698318,108.162675 C145.194318,108.375675 145.583318,108.780675 145.776318,109.284675 C148.601318,116.659675 150.033318,124.410675 150.033318,132.319675 C150.033318,167.848675 121.128318,196.752675 85.6003182,196.752675" id="Fill-26" fill="#373D44"></path>
                            <path d="M163.999893,32.5558174 C163.513893,32.5558174 163.025893,32.3798174 162.641893,32.0228174 C161.830893,31.2728174 161.781893,30.0078174 162.531893,29.1968174 L175.083893,15.6408174 C175.834893,14.8298174 177.100893,14.7828174 177.909893,15.5328174 C178.720893,16.2828174 178.769893,17.5488174 178.019893,18.3588174 L165.467893,31.9148174 C165.072893,32.3408174 164.536893,32.5558174 163.999893,32.5558174" id="Fill-27" fill="#373D44"></path>
                            <path d="M152.679993,33.1828932 C151.885993,33.1828932 151.134993,32.7068932 150.822993,31.9258932 L139.143993,2.74389317 C138.732993,1.71789317 139.231993,0.553893174 140.256993,0.142893174 C141.285993,-0.266106826 142.447993,0.232893174 142.856993,1.25689317 L154.534993,30.4388932 C154.946993,31.4648932 154.447993,32.6288932 153.421993,33.0388932 C153.177993,33.1368932 152.926993,33.1828932 152.679993,33.1828932" id="Fill-28" fill="#373D44"></path>
                            <path d="M181,87.265 C181,89.62 182.909,91.53 185.265,91.53 C187.62,91.53 189.53,89.62 189.53,87.265 C189.53,84.91 187.62,83 185.265,83 C182.909,83 181,84.91 181,87.265" id="Fill-29" fill="#373D44"></path>
                            <path d="M113.914,52 L140.411,52 L136.497,57.747 L110,57.747 L113.914,52 Z" id="Fill-30" fill="#49B9E8"></path>
                            <path d="M202.904,52 L176,52 L180.31,57.747 L206.233,57.747 L202.904,52 Z" id="Fill-31" fill="#49B9E8"></path>
                            <path d="M141,72.599 C141,82.319 148.879,90.198 158.599,90.198 C168.318,90.198 176.198,82.319 176.198,72.599 C176.198,62.879 168.318,55 158.599,55 C148.879,55 141,62.879 141,72.599" id="Fill-32" fill="#AFBAC4"></path>
                            <path d="M158.599,57 C149.997,57 143,63.998 143,72.599 C143,81.2 149.997,88.198 158.599,88.198 C167.201,88.198 174.198,81.2 174.198,72.599 C174.198,63.998 167.201,57 158.599,57 M158.599,92.198 C147.792,92.198 139,83.406 139,72.599 C139,61.792 147.792,53 158.599,53 C169.406,53 178.198,61.792 178.198,72.599 C178.198,83.406 169.406,92.198 158.599,92.198" id="Fill-33" fill="#373D44"></path>
                            <path d="M109,108 L206.866,108 L199.737,120.572 L117.941,120.572 L109,108 Z" id="Fill-34" fill="#AFBAC4"></path>
                            <path d="M110,109 L207.179,109 L207.179,107 L110,107 L110,109 Z" id="Fill-35" fill="#373D44"></path>
                            <path d="M100.1585,78.3006253 C98.6115001,80.9726253 98.6115001,84.2926253 100.1595,86.9646253 L117.7755,117.382625 L198.4295,117.354625 L216.0905,86.8616253 C217.6375,84.1896253 217.6365,80.8696253 216.0895,78.1976253 L199.7375,49.9646253 C198.7725,48.2976253 197.2575,46.9866253 195.4695,46.2706253 L161.3585,32.6226253 C159.2875,31.7936253 157.0055,31.7946253 154.9315,32.6246253 L120.8195,46.2986253 C119.0345,47.0136253 117.5195,48.3246253 116.5545,49.9896253 L100.1585,78.3006253 L100.1585,78.3006253 Z M115.4715,121.383625 L96.6985001,88.9696253 C94.4345001,85.0616253 94.4335001,80.2056253 96.6975001,76.2966253 L96.6975001,76.2966253 L113.0945,47.9846253 C114.5045,45.5506253 116.7205,43.6326253 119.3315,42.5856253 L153.4435,28.9116253 C156.4745,27.6966253 159.8115,27.6966253 162.8455,28.9086253 L196.9555,42.5566253 C199.5705,43.6036253 201.7885,45.5226253 203.1985,47.9596253 L219.5505,76.1936253 C221.8135,80.1006253 221.8145,84.9566253 219.5515,88.8656253 L200.7365,121.353625 L115.4715,121.383625 Z" id="Fill-36" fill="#373D44"></path>
                            <path d="M18,162.454 L22,162.454 L22,140 L18,140 L18,162.454 Z" id="Fill-37" fill="#373D44"></path>
                            <path d="M5.95702234,101.973513 L5.95702234,127.232206 C5.95702234,132.667945 10.3948229,137.088487 15.8495782,137.088487 L24.1504218,137.088487 C29.6041878,137.088487 34.0429777,132.667945 34.0429777,127.232206 L34.0429777,101.973513 L5.95702234,101.973513 Z M24.1504218,141.031 L15.8495782,141.031 C8.21252507,141.031 2,134.841255 2,127.232206 L2,98.031 L38,98.031 L38,127.232206 C38,134.841255 31.7864857,141.031 24.1504218,141.031 L24.1504218,141.031 Z" id="Fill-38" fill="#373D44"></path>
                            <path d="M9,165.031 L31,165.031 L31,161.031 L9,161.031 L9,165.031 Z" id="Fill-39" fill="#373D44"></path>
                        </g>
                    </g>
                </g>
            </g>
        </g>
    </g>
</svg>

<svg width="250" height="210" viewBox="0 0 250 210" xmlns="http://www.w3.org/2000/svg"><title>Page 1</title><desc>Created with Sketch.</desc><g fill="none"><path d="M4 110v16.452l.97 6.324 2.332 3.528 5.117 3.762h11.971l6.415-1.885 4.128-4.401 1.457-5.714v-13.568l-32.39-4.498z" fill="#49B9E8"/><path d="M36.391 114.776l-32.391-3.79.233-1.986 32.39 3.79-.232 1.986z" fill="#373D44"/><g><path d="M81 161.82h10.971l8.85-3.617 8.401-7.703 4.997-10.685.74-9.447-1.563-7.399-20.709 10.599-11.687 28.252z" fill="#AFBAC4"/><path d="M234.071 161.969l-17.071 32.191 19.618 34.848 11.306-31.868-7.167-23.261-6.686-11.91z" fill="#AFBAC4"/><path d="M136.49 115.972l-35.108 14.542c-3.654 1.514-6.499 4.358-8.012 8.011l-21.234 51.262c-1.512 3.653-1.512 7.676 0 11.329l21.234 51.262c1.513 3.653 4.357 6.497 8.012 8.011l51.261 21.233c3.653 1.513 7.676 1.513 11.328 0l51.263-21.233c3.653-1.514 6.498-4.359 8.011-8.011l21.233-51.262c1.513-3.653 1.513-7.676 0-11.329l-21.233-51.262c-1.513-3.653-4.358-6.497-8.011-8.011l-35.048-14.517-15.79.928-.425-.176c-4.678-1.938-8.382-2.286-11.328-1.067l-.359.149-15.794.141zm21.817 170.787c-2.437 0-4.875-.48-7.195-1.441l-51.262-21.234c-4.64-1.922-8.255-5.536-10.175-10.175l-21.234-51.263c-1.922-4.639-1.922-9.75 0-14.389l21.234-51.263c1.921-4.64 5.535-8.253 10.175-10.175l35.828-14.84 15.81-.141c3.794-1.435 8.246-1.095 13.584 1.041l15.796-.929 35.897 14.869c4.64 1.922 8.253 5.536 10.175 10.175l21.234 51.263c1.921 4.639 1.921 9.75 0 14.389l-21.234 51.263c-1.921 4.639-5.535 8.252-10.175 10.175l-51.262 21.234c-2.321.961-4.758 1.441-7.196 1.441z" fill="#373D44"/><path d="M198.886 161.979l-55.886-11.048.388-1.962 55.886 11.048-.388 1.962z" fill="#373D44"/><path d="M123.814 224.444l-15.814-35.665 1.828-.81 15.814 35.664-1.828.811z" fill="#373D44"/><path d="M26 178.969h49.355v-4h-49.355v4z" fill="#373D44"/><path d="M3.041 176.097h34v-8.128h-34v8.128z" fill="#AFBAC4"/><path d="M6.135 175.042h27.731v-4.084h-27.731v4.084zm-6.135 3.958h40v-12h-40v12z" fill="#373D44"/><path d="M241.46 213.129c-9.41-5.008-15.818-14.91-15.818-26.313 0-9.145 3.504-16.78 9.99-22.245l.669-.425s-7.829-18.966-9.688-23.388c-1.859-4.423-3.242-6.789-3.242-6.789l-1.361.923c-18.249 10.898-29.01 29.125-29.01 51.924 0 25.007 14.708 46.57 35.941 56.537l12.519-30.224z" fill="#49B9E8"/><path d="M222.632 137.507c-17.824 10.819-27.632 28.544-27.632 49.964 0 22.624 12.85 43.515 32.908 53.803l11.03-26.625c-9.481-5.756-15.297-16.008-15.297-27.178 0-9.427 3.528-17.487 10.213-23.354-1.867-4.519-7.55-18.278-9.085-21.929-.843-2.005-1.586-3.578-2.137-4.681zm5.459 108.312c-22.532-10.577-37.091-33.48-37.091-58.348 0-23.025 10.63-42.062 29.935-53.611l1.312-.891 2.85.645c.059.102 1.472 2.532 3.359 7.024 1.841 4.377 9.614 23.21 9.693 23.4l-.776 2.451-.553.352c-6.005 5.109-9.179 12.24-9.179 20.63 0 10.297 5.655 19.703 14.759 24.547l.908 2.531-12.52 30.224-2.697 1.046z" fill="#373D44"/><path d="M115.392 132.289c0 16.454-13.338 29.792-29.792 29.792-1.516 0-3.005-.115-4.46-.333 0 0-7.822 19.207-9.716 23.455-1.894 4.249-2.424 7.333-2.424 7.333l.701.122c5.444 1.55 9.957 2.065 15.899 2.065 34.481 0 62.433-27.953 62.433-62.434 0-7.867-1.469-15.387-4.125-22.32l-30.18 12.501c1.073 3.076 1.664 6.377 1.664 9.819" fill="#49B9E8"/><path d="M71.414 191.054c4.542 1.195 8.633 1.668 14.186 1.668 33.323 0 60.433-27.11 60.433-60.433 0-6.731-1.105-13.339-3.29-19.673l-26.557 11c.8 2.82 1.206 5.73 1.206 8.673 0 17.53-14.262 31.792-31.792 31.792-1.059 0-2.125-.053-3.187-.159-1.856 4.55-7.558 18.495-9.162 22.096-.912 2.044-1.49 3.809-1.837 5.036m14.186 5.668c-6.386 0-10.98-.592-16.346-2.112l-.599-.104c-1.086-.191-1.813-1.223-1.626-2.309.024-.137.595-3.382 2.568-7.808 1.859-4.17 9.612-23.204 9.69-23.396.349-.854 1.237-1.357 2.149-1.223 1.377.206 2.779.311 4.164.311 15.324 0 27.792-12.467 27.792-27.792 0-3.126-.523-6.208-1.553-9.16-.349-1.001.143-2.101 1.123-2.507l30.181-12.501c.5-.206 1.061-.202 1.555.011.496.213.885.618 1.078 1.122 2.825 7.375 4.257 15.126 4.257 23.035 0 35.529-28.905 64.433-64.433 64.433" fill="#373D44"/><path d="M164 32.525c-.486 0-.974-.176-1.358-.533-.811-.75-.86-2.015-.11-2.826l12.552-13.556c.751-.811 2.017-.858 2.826-.108.811.75.86 2.016.11 2.826l-12.552 13.556c-.395.426-.931.641-1.468.641" fill="#373D44"/><path d="M152.68 33.152c-.794 0-1.545-.476-1.857-1.257l-11.679-29.182c-.411-1.026.088-2.19 1.113-2.601 1.029-.409 2.191.09 2.6 1.114l11.678 29.182c.412 1.026-.087 2.19-1.113 2.6-.244.098-.495.144-.742.144" fill="#373D44"/><path d="M181 87.234c0 2.355 1.909 4.265 4.265 4.265 2.355 0 4.265-1.91 4.265-4.265 0-2.355-1.91-4.265-4.265-4.265-2.356 0-4.265 1.91-4.265 4.265" fill="#373D44"/><path d="M113.914 51.969h26.497l-3.914 5.747h-26.497l3.914-5.747z" fill="#49B9E8"/><path d="M202.904 51.969h-26.904l4.31 5.747h25.923l-3.329-5.747z" fill="#49B9E8"/><path d="M141 72.568c0 9.72 7.879 17.599 17.599 17.599 9.719 0 17.599-7.879 17.599-17.599s-7.88-17.599-17.599-17.599c-9.72 0-17.599 7.879-17.599 17.599" fill="#AFBAC4"/><path d="M158.599 56.969c-8.602 0-15.599 6.998-15.599 15.599 0 8.601 6.997 15.599 15.599 15.599s15.599-6.998 15.599-15.599c0-8.601-6.997-15.599-15.599-15.599m0 35.198c-10.807 0-19.599-8.792-19.599-19.599s8.792-19.599 19.599-19.599 19.599 8.792 19.599 19.599-8.792 19.599-19.599 19.599" fill="#373D44"/><path d="M109 107.969h97.866l-7.129 12.572h-81.796l-8.941-12.572z" fill="#AFBAC4"/><path d="M110 108.969h97.179v-2h-97.179v2z" fill="#373D44"/><path d="M100.159 78.27c-1.547 2.672-1.547 5.992.001 8.664l17.616 30.418 80.654-.028 17.661-30.493c1.547-2.672 1.546-5.992-.001-8.664l-16.352-28.233c-.965-1.667-2.48-2.978-4.268-3.694l-34.111-13.648c-2.071-.829-4.353-.828-6.427.002l-34.112 13.674c-1.785.715-3.3 2.026-4.265 3.691l-16.396 28.311zm15.313 43.083l-18.773-32.414c-2.264-3.908-2.265-8.764-.001-12.673l16.397-28.312c1.41-2.434 3.626-4.352 6.237-5.399l34.112-13.674c3.031-1.215 6.368-1.215 9.402-.003l34.11 13.648c2.615 1.047 4.833 2.966 6.243 5.403l16.352 28.234c2.263 3.907 2.264 8.763.001 12.672l-18.815 32.488-85.265.03z" fill="#373D44"/><path d="M18 162.423h4v-22.454h-4v22.454z" fill="#373D44"/><path d="M5.957 101.943v25.259c0 5.436 4.438 9.856 9.893 9.856h8.301c5.454 0 9.893-4.421 9.893-9.856v-25.259h-28.086zm18.193 39.057h-8.301c-7.637 0-13.85-6.19-13.85-13.799v-29.201h36v29.201c0 7.609-6.214 13.799-13.85 13.799z" fill="#373D44"/><path d="M9 165h22v-4h-22v4z" fill="#373D44"/></g></g></svg>
